communes/6452.svg

<?xml version="1.0" encoding="UTF-8" standalone="no"?>
<!-- Created with Inkscape (http://www.inkscape.org/) -->

<svg
   xmlns:dc="http://purl.org/dc/elements/1.1/"
   xmlns:cc="http://creativecommons.org/ns#"
   xmlns:rdf="http://www.w3.org/1999/02/22-rdf-syntax-ns#"
   xmlns:svg="http://www.w3.org/2000/svg"
   xmlns="http://www.w3.org/2000/svg"
   xmlns:sodipodi="http://sodipodi.sourceforge.net/DTD/sodipodi-0.dtd"
   xmlns:inkscape="http://www.inkscape.org/namespaces/inkscape"
   version="1.0"
   width="208.86046"
   height="244.65999"
   id="svg2780"
   inkscape:version="0.92.5 (2060ec1f9f, 2020-04-08)"
   sodipodi:docname="Cressier_NE-blazon.svg">
  <metadata
     id="metadata27">
    <rdf:RDF>
      <cc:Work
         rdf:about="">
        <dc:format>image/svg+xml</dc:format>
        <dc:type
           rdf:resource="http://purl.org/dc/dcmitype/StillImage" />
        <dc:title />
      </cc:Work>
    </rdf:RDF>
  </metadata>
  <sodipodi:namedview
     pagecolor="#ffffff"
     bordercolor="#666666"
     borderopacity="1"
     objecttolerance="10"
     gridtolerance="10"
     guidetolerance="10"
     inkscape:pageopacity="0"
     inkscape:pageshadow="2"
     inkscape:window-width="1626"
     inkscape:window-height="1408"
     id="namedview25"
     showgrid="false"
     inkscape:zoom="5.6568542"
     inkscape:cx="98.644094"
     inkscape:cy="135.89202"
     inkscape:window-x="1543"
     inkscape:window-y="0"
     inkscape:window-maximized="0"
     inkscape:current-layer="svg2780"
     inkscape:measure-start="104.255,149.787"
     inkscape:measure-end="104.255,126.383"
     showguides="true"
     inkscape:object-paths="true"
     inkscape:snap-intersection-paths="true" />
  <defs
     id="defs2782" />
  <g
     id="g20784"
     transform="translate(272.49999,64.499998)">
    <path
       inkscape:connector-curvature="0"
       id="path16902-4"
       d="m -202.5465,53.989782 h 68.95348 V -63.5 h -68.95348 z"
       style="opacity:1;fill:#cc2918;fill-opacity:1;stroke:#000000;stroke-width:1;stroke-miterlimit:2;stroke-dasharray:none;stroke-dashoffset:4.57999992;stroke-opacity:1" />
    <path
       sodipodi:nodetypes="ccccccc"
       inkscape:connector-curvature="0"
       d="M -133.59302,-36.41186 -168.06975,-63.5 l -34.47674,27.08816 -1e-5,18.080332 34.47675,-27.08816 34.47673,27.08814 z"
       style="opacity:1;fill:#ffffff;fill-opacity:1;stroke:#000000;stroke-width:1;stroke-miterlimit:2;stroke-dasharray:none;stroke-dashoffset:4.57999992;stroke-opacity:1"
       id="path16904-8-1" />
    <path
       sodipodi:nodetypes="ccccccc"
       inkscape:connector-curvature="0"
       d="m -133.59302,-0.2512106 -34.47673,-27.0881394 -34.47674,27.0881594 -1e-5,18.0803316 34.47675,-27.08816 34.47673,27.08814 z"
       style="opacity:1;fill:#ffffff;fill-opacity:1;stroke:#000000;stroke-width:1;stroke-miterlimit:2;stroke-dasharray:none;stroke-dashoffset:4.57999992;stroke-opacity:1"
       id="path16904-8-1-5" />
    <path
       sodipodi:nodetypes="ccccccc"
       inkscape:connector-curvature="0"
       d="m -133.59302,35.909423 -34.47673,-27.0881393 -34.47674,27.0881593 -1e-5,18.080332 34.47675,-27.08816 34.47673,27.08814 z"
       style="opacity:1;fill:#ffffff;fill-opacity:1;stroke:#000000;stroke-width:1;stroke-miterlimit:2;stroke-dasharray:none;stroke-dashoffset:4.57999992;stroke-opacity:1"
       id="path16904-8-1-9" />
  </g>
  <path
     id="path4212-6"
     style="fill:#1b63c6;fill-opacity:1;fill-rule:evenodd;stroke:#000000;stroke-width:1.99999988;stroke-linecap:butt;stroke-miterlimit:4;stroke-dashoffset:0;stroke-opacity:1"
     d="M 1.000033,149.10355 V 0.99999834 c 68.953472,0 137.906947,0 206.860417,0 V 149.10355 c 0,51.44535 -51.71515,94.56785 -103.43021,94.56785 -51.71506,0 -103.430207,-43.1225 -103.430207,-94.56785 z"
     inkscape:connector-curvature="0"
     sodipodi:nodetypes="sccscs" />
  <path
     style="opacity:1;fill:#feeb00;fill-opacity:1;stroke:#000000;stroke-width:1;stroke-miterlimit:2;stroke-dasharray:none;stroke-dashoffset:4.57999992;stroke-opacity:1"
     d="M 138.90697,118.48978 V 0.99999834 l 68.95348,6e-8 V 118.48978 Z"
     id="path16898"
     inkscape:connector-curvature="0" />
  <path
     style="opacity:1;fill:#feeb00;fill-opacity:1;stroke:#000000;stroke-width:1;stroke-miterlimit:2;stroke-dasharray:none;stroke-dashoffset:4.57999992;stroke-opacity:1"
     d="M 69.953498,118.48978 H 1.000033 V 1.0000359 l 68.953465,-3.756e-5 z"
     id="path16900"
     inkscape:connector-curvature="0" />
  <flowRoot
     xml:space="preserve"
     id="flowRoot17014"
     style="font-style:normal;font-variant:normal;font-weight:normal;font-stretch:normal;font-size:96px;line-height:125%;font-family:'Adobe Hebrew';-inkscape-font-specification:'Adobe Hebrew';letter-spacing:0px;word-spacing:0px;fill:#000000;fill-opacity:1;stroke:none;stroke-width:1px;stroke-linecap:butt;stroke-linejoin:miter;stroke-opacity:1;"><flowRegion
       id="flowRegion17016"
       style="font-size:96px;"><rect
         id="rect17018"
         width="68.953468"
         height="78.1353"
         x="69.953499"
         y="139.65463"
         style="font-size:96px;" /></flowRegion><flowPara
       id="flowPara17020">C</flowPara></flowRoot>  <g
     aria-label="C"
     style="font-style:normal;font-variant:normal;font-weight:normal;font-stretch:normal;font-size:96px;line-height:125%;font-family:Century;-inkscape-font-specification:Century;letter-spacing:0px;word-spacing:0px;fill:#ffffff;fill-opacity:1;stroke:#000000;stroke-width:0.86571264px;stroke-linecap:butt;stroke-linejoin:miter;stroke-opacity:1"
     id="text17024"
     transform="matrix(1.2117375,0,0,1.1011435,-22.907617,-18.817445)">
    <path
       d="m 131.74475,148.33453 c 2.01506,-5.73912 2.95258,-12.31982 7.16222,-12.77357 -2.88328,12.77945 -1.3081,23.88701 -1.24782,35.56264 l -4.4191,0.76625 c -2.43578,-8.74978 -5.50972,-15.18855 -9.18957,-19.34713 -4.58709,-5.18385 -10.03841,-7.79114 -16.38622,-7.79114 -6.8645,0 -12.455744,2.89335 -16.773736,8.68007 -4.31799,5.78671 -8.04277,15.77949 -8.04277,29.58394 0,11.60827 4.030608,20.27235 8.983871,26.36589 4.199411,5.16615 10.112225,7.73885 17.714845,7.73885 6.64306,0 12.22123,-1.99791 16.71836,-6.0133 2.17505,-1.94205 3.97508,-4.37066 5.41632,-7.26628 0.36588,-0.73512 0.70829,-1.50076 1.02723,-2.29692 l 4.64631,2.965 c -0.39025,1.08974 -0.82041,2.13855 -1.29051,3.14642 -1.68061,3.60323 -3.87145,6.68337 -6.57253,9.2404 -5.67188,5.36937 -12.81843,8.05406 -21.43968,8.05406 -6.99532,0 -13.423445,-1.75829 -19.284382,-5.27486 -5.823125,-3.51655 -10.492969,-8.56452 -14.009531,-15.14389 -3.47875,-6.61719 -4.76358,-14.35829 -4.76358,-22.22329 0,-8.35657 1.341548,-15.70265 4.933736,-23.03827 3.63,-7.33563 8.262031,-12.83735 13.896094,-16.50517 5.634062,-3.70563 11.702963,-5.55843 18.206713,-5.55843 3.63,0 7.14657,0.62391 10.5497,1.87172 3.40312,1.24781 9.94599,5.31472 14.16403,9.25701 z"
       id="path20729"
       inkscape:connector-curvature="0"
       sodipodi:nodetypes="ccccssssssssccsssccsccscc"
       style="fill:#ffffff;fill-opacity:1;stroke:#000000;stroke-width:0.86571264px;stroke-opacity:1" />
  </g>
  <path
     style="opacity:1;fill:#cc2918;fill-opacity:1;stroke:#000000;stroke-width:1;stroke-miterlimit:2;stroke-dasharray:none;stroke-dashoffset:4.57999992;stroke-opacity:1"
     d="m 69.9535,118.48978 h 68.95347 V 0.99999834 H 69.9535 Z"
     id="path16902"
     inkscape:connector-curvature="0" />
  <path
     id="path16904-9"
     style="opacity:1;fill:#ffffff;fill-opacity:1;stroke:#000000;stroke-width:0.99999994;stroke-miterlimit:2;stroke-dasharray:none;stroke-dashoffset:4.57999992;stroke-opacity:1"
     d="m 104.43024,20.69035 34.47673,19.038079 V 20.038078 L 104.43024,0.99999834 69.9535,20.038088 v 19.690348 z"
     inkscape:connector-curvature="0"
     sodipodi:nodetypes="ccccccc" />
  <path
     id="path16904-9-4"
     style="opacity:1;fill:#ffffff;fill-opacity:1;stroke:#000000;stroke-width:0.99999994;stroke-miterlimit:2;stroke-dasharray:none;stroke-dashoffset:4.57999992;stroke-opacity:1"
     d="m 104.43024,60.071032 34.47673,19.038079 V 59.41876 L 104.43024,40.380681 69.9535,59.41877 v 19.690348 z"
     inkscape:connector-curvature="0"
     sodipodi:nodetypes="ccccccc" />
  <path
     id="path16904-9-2"
     style="opacity:1;fill:#ffffff;fill-opacity:1;stroke:#000000;stroke-width:1;stroke-miterlimit:1;stroke-dasharray:none;stroke-dashoffset:4.57999992;stroke-opacity:1"
     d="m 104.43024,99.451711 34.47673,19.038079 V 98.799439 L 104.43024,79.76136 69.9535,98.799449 V 118.4898 Z"
     inkscape:connector-curvature="0"
     sodipodi:nodetypes="ccccccc" />
  <path
     id="path4212-6-1"
     style="fill:none;fill-opacity:1;fill-rule:evenodd;stroke:#000000;stroke-width:1.99999988;stroke-linecap:butt;stroke-miterlimit:4;stroke-dashoffset:0;stroke-opacity:1"
     d="M 1.000033,149.10355 V 0.99999834 c 68.953472,0 137.906947,0 206.860417,0 V 149.10355 c 0,51.44535 -51.71515,94.56785 -103.43021,94.56785 -51.71506,0 -103.430207,-43.1225 -103.430207,-94.56785 z"
     inkscape:connector-curvature="0"
     sodipodi:nodetypes="sccscs" />
</svg>

<?xml version="1.0" encoding="UTF-8"?>
<svg version="1.0" viewBox="0 0 208.86 244.66" xmlns="http://www.w3.org/2000/svg" xmlns:cc="http://creativecommons.org/ns#" xmlns:dc="http://purl.org/dc/elements/1.1/" xmlns:rdf="http://www.w3.org/1999/02/22-rdf-syntax-ns#">
<metadata>
<rdf:RDF>
<cc:Work rdf:about="">
<dc:format>image/svg+xml</dc:format>
<dc:type rdf:resource="http://purl.org/dc/dcmitype/StillImage"/>
<dc:title/>
</cc:Work>
</rdf:RDF>
</metadata>
<g transform="translate(272.5 64.5)" stroke="#000" stroke-dashoffset="4.58" stroke-miterlimit="2">
<path d="m-202.55 53.99h68.953v-117.49h-68.953z" fill="#cc2918"/>
<path d="m-133.59-36.412-34.477-27.088-34.477 27.088-1e-5 18.08 34.477-27.088 34.477 27.088z" fill="#fff"/>
<path d="m-133.59-0.25121-34.477-27.088-34.477 27.088-1e-5 18.08 34.477-27.088 34.477 27.088z" fill="#fff"/>
<path d="m-133.59 35.909-34.477-27.088-34.477 27.088-1e-5 18.08 34.477-27.088 34.477 27.088z" fill="#fff"/>
</g>
<path d="m1 149.1v-148.1h206.86v148.1c0 51.445-51.715 94.568-103.43 94.568s-103.43-43.122-103.43-94.568z" fill="#1b63c6" fill-rule="evenodd" stroke="#000" stroke-width="2"/>
<path d="m138.91 118.49v-117.49l68.953 6e-8v117.49z" fill="#feeb00" stroke="#000" stroke-dashoffset="4.58" stroke-miterlimit="2"/>
<path d="m69.953 118.49h-68.953v-117.49l68.953-3.756e-5z" fill="#feeb00" stroke="#000" stroke-dashoffset="4.58" stroke-miterlimit="2"/>
<flowRoot fill="#000000" font-family="'Adobe Hebrew'" font-size="96px" letter-spacing="0px" stroke-width="1px" word-spacing="0px" style="line-height:125%" xml:space="preserve"><flowRegion font-size="96px"><rect x="69.953" y="139.65" width="68.953" height="78.135"/></flowRegion><flowPara>C</flowPara></flowRoot>
<g transform="matrix(1.2117 0 0 1.1011 -22.908 -18.817)" fill="#fff" stroke="#000" stroke-width=".86571px" aria-label="C">
<path d="m131.74 148.33c2.0151-5.7391 2.9526-12.32 7.1622-12.774-2.8833 12.779-1.3081 23.887-1.2478 35.563l-4.4191 0.76625c-2.4358-8.7498-5.5097-15.189-9.1896-19.347-4.5871-5.1838-10.038-7.7911-16.386-7.7911-6.8645 0-12.456 2.8934-16.774 8.6801-4.318 5.7867-8.0428 15.779-8.0428 29.584 0 11.608 4.0306 20.272 8.9839 26.366 4.1994 5.1662 10.112 7.7388 17.715 7.7388 6.6431 0 12.221-1.9979 16.718-6.0133 2.175-1.942 3.9751-4.3707 5.4163-7.2663 0.36588-0.73512 0.70829-1.5008 1.0272-2.2969l4.6463 2.965c-0.39025 1.0897-0.82041 2.1386-1.2905 3.1464-1.6806 3.6032-3.8714 6.6834-6.5725 9.2404-5.6719 5.3694-12.818 8.0541-21.44 8.0541-6.9953 0-13.423-1.7583-19.284-5.2749-5.8231-3.5166-10.493-8.5645-14.01-15.144-3.4788-6.6172-4.7636-14.358-4.7636-22.223 0-8.3566 1.3415-15.703 4.9337-23.038 3.63-7.3356 8.262-12.837 13.896-16.505 5.6341-3.7056 11.703-5.5584 18.207-5.5584 3.63 0 7.1466 0.62391 10.55 1.8717 3.4031 1.2478 9.946 5.3147 14.164 9.257z" fill="#fff" stroke="#000" stroke-width=".86571px"/>
</g>
<path d="m69.954 118.49h68.953v-117.49h-68.953z" fill="#cc2918" stroke="#000" stroke-dashoffset="4.58" stroke-miterlimit="2"/>
<path d="m104.43 20.69 34.477 19.038v-19.69l-34.477-19.038-34.477 19.038v19.69z" fill="#fff" stroke="#000" stroke-dashoffset="4.58" stroke-miterlimit="2"/>
<path d="m104.43 60.071 34.477 19.038v-19.69l-34.477-19.038-34.477 19.038v19.69z" fill="#fff" stroke="#000" stroke-dashoffset="4.58" stroke-miterlimit="2"/>
<path d="m104.43 99.452 34.477 19.038v-19.69l-34.477-19.038-34.477 19.038v19.69z" fill="#fff" stroke="#000" stroke-dashoffset="4.58" stroke-miterlimit="1"/>
<path d="m1 149.1v-148.1h206.86v148.1c0 51.445-51.715 94.568-103.43 94.568s-103.43-43.122-103.43-94.568z" fill="none" stroke="#000" stroke-width="2"/>
</svg>
